X:102
T:Dusky Night. JGi.102, The
T:A Hunting We will Go, aka.
M:6/8
L:1/8
Q:3/8=110
B:Joshua Gibbons MS,1823,Tealby,Lincs.
Z:Village Music Project, R.Greig, 2009
K:F
c2|f2fc2B|A>G AF2c|d2cB2A|(A3G2)G|
c2cd2d|e>d ec2c|f2fg2g|a>gaf2c|
(d>ef) g>ab|c>def2c|d2d c>B c|
c3zzF/F/|c2cc2c|c3zzc/c/|f2f f>ga|
f3zzc/2c/2|(d>ef) g>ab|c>de Hf2c/c/|d2d cHBc|F2|]

